T: Muffin March
M: 4/4
L: 1/8
K: Gmaj
a3g fg/2f/2ed|c2g2fedc|B3cd2A2|B2de efed|
a3g fg/2f/2ed|c2g2fedc|B3cd2A2| [1G2BGA2 fg:|] [2G2BGA2 AB|
c2BA cBA2|d2c2e2d2|B2BAB2e2|d2cBA2AB|
c2BA cBA2|d2c2e2d2|B2BAB2e2| [1d2efg2ed:|| [2d2ef gefg|]
